packages/gestalt-icons-android/vr-theme/ic_vr_impressum_gestalt.svg

<svg width="24" height="24" viewBox="0 0 24 24" fill="none" xmlns="http://www.w3.org/2000/svg">
<path fill-rule="evenodd" clip-rule="evenodd" d="M7.23485 3.13331C7.85832 1.26291 9.60903 0 11.5812 0H12C14.2221 0 16.1948 1.42185 16.8974 3.52982L16.9487 3.68377L15.0514 4.31623L15 4.16228C14.5696 2.87099 13.3612 2 12 2H11.5812C10.4705 2 9.48364 2.7115 9.13222 3.76576C9.0447 4.02832 9.00005 4.3034 9.00005 4.58004C9.00005 5.63271 9.64094 6.57932 10.6183 6.97027L15.7183 9.01027C17.7026 9.80397 18.7955 11.9414 18.2771 14.0147C18.0193 15.0461 17.3863 15.9444 16.5017 16.5341L16.1522 16.7671C16.6921 17.5255 17 18.4473 17 19.42C17 19.9117 16.9207 20.4003 16.7652 20.8667C16.1418 22.7371 14.3911 24 12.4189 24H12C9.77805 24 7.80534 22.5782 7.10268 20.4702L7.05137 20.3162L8.94873 19.6838L9.00005 19.8377C9.43048 21.129 10.6389 22 12 22H12.4189C13.5296 22 14.5165 21.2885 14.8679 20.2342C14.9554 19.9717 15 19.6966 15 19.42C15 18.3673 14.3592 17.4207 13.3818 17.0297L8.28179 14.9897C6.29753 14.196 5.20463 12.0586 5.72295 9.98528C5.9808 8.95389 6.61381 8.05564 7.49839 7.46592L7.84788 7.23293C7.30802 6.47449 7.00005 5.55275 7.00005 4.58004C7.00005 4.08832 7.0794 3.59968 7.23485 3.13331ZM10.6283 9.14107L14.9706 10.8955C16.0644 11.3374 16.5929 12.5824 16.1509 13.6763C15.709 14.7701 14.464 15.2986 13.3701 14.8566L9.02788 13.1023C7.93402 12.6603 7.40555 11.4153 7.8475 10.3214C8.28944 9.2276 9.53445 8.69912 10.6283 9.14107Z" fill="black"/>
</svg>

<svg xmlns="http://www.w3.org/2000/svg" width="24" height="24"><path d="M7.23 3.13A4.6 4.6 0 0 1 11.58 0H12c2.22 0 4.2 1.42 4.9 3.53l.05.15-1.9.64-.05-.16A3.2 3.2 0 0 0 12 2h-.42a2.58 2.58 0 0 0-.96 4.97l5.1 2.04a4.27 4.27 0 0 1 .78 7.52l-.35.24A4.57 4.57 0 0 1 12.42 24H12a5.2 5.2 0 0 1-4.9-3.53l-.05-.15 1.9-.64.05.16A3.2 3.2 0 0 0 12 22h.42a2.58 2.58 0 0 0 .96-4.97l-5.1-2.04a4.27 4.27 0 0 1-.78-7.52l.35-.24a4.6 4.6 0 0 1-.62-4.1m.62 7.2a2.14 2.14 0 0 0 1.18 2.77l4.34 1.76a2.14 2.14 0 1 0 1.6-3.96l-4.34-1.76a2.14 2.14 0 0 0-2.78 1.18"/></svg>
